X: 34080
T: Reel De Port-Joli
R: reel
M: 4/4
K: Dmajor
de|:"D"fdec dAFA|"G"GABG E2ed|"A"c2 (3BcB Acec|"D"defd "A"Acde|
"D"fdec dAFA|"G"GABG E2ed|"A"c2 (3BcB Aceg|1 "D"fgec dcde:|2 "D"fgec d2AG||
|:"D"FAdA FAFA|"G"GBAG (3FGF AG|"D"FAdA F/G/Adf|"A"(3efe ce Aece|
FAdA FAdA|GBAG (3FGF AG|FAdf gece|1 dfec d2AG:|2 dfec dcde||

